X:625
%%etbk:tnset id:367,pos:2,rep:3x,ant:
%%etbk:wsite https://thesession.org/tunes/836
%%etbk:pldat 2015-05-06T15:24,2015-02-04T16:38,2015-02-03T16:09,2015-01-31T16:15,2015-01-27T16:27,2015-01-26T18:56,2015-01-25T16:24,2015-01-22T18:33,2015-01-18T13:52
T: Dublin Porter
Z: Piano Box Version by Martin Fleischmann
H: Created 2015-01-17 /  Last Modified 2015-05-06
R: reel
M: 4/4
L: 1/8
K: Gmaj
|:!2!B2 BA BcdB|!3!cBAB cdec|!1!A!4!dd^c d=c!1!A!3!G|!2!FDAD BDAD|
B3 A BcdB|cBAB cdef|!5!g2 fg !3!e!2!c!1!A!2!F|1 GBAF G2 DG:|2 GBAF GzBc||
|:d2!5!gf g!2!dBd|!5!g2 fg !3!e!1!A ~A2|eA ~A2 !2!edeg|!3!fgag fdef|
!5!g2 gf gdBd|g2 fg eA ~A2|eA ~A2 edeg|1 fgaf gzBc:|2 fgaf !4!ge!1!d!3!c||
|"var A-Teil Takt 4"FGAF DEFD|


